X: 39
T: JIG: Kilmovee
C: C: Trad.; S: Various
C: Set Leaders: Mars, Tania
Z: [Unedited]; Phantom Button at The Session
N: https://thesession.org/members/26966/sets/94271
R: Jig
M: 6/8
L: 1/8
Q: 3/8=116
K: Gmaj
|:~G3 ~B3|GAB AGE|DEG B/c/d g|ege dBA|
~G3 ~B3|ded AGE|DEG B/c/d g|1 edB G3:|2 edB G B/c/d||
|:g2B dBG|AGE GED|G B/c/d ~g3|eag fed|
~B3 dBA|GBG AGE|DEG B/c/d g|1 edB G B/c/d:|2 edB G||

